X: 4
T: Rock the Cradle Joe
N: RJ R-68
C: Old-Time
M: C|
Z: Transcribed to abc by Mary Lou Knack
R: reel
F:http://roaringjelly.org/music/reel/R068_Rock_the_Cradle_Joe.abc	 2007-05-02 17:15:14 UT
K: D
fg \
| "D"a2ab affg | a2a2 affg | a2a2 aba2 | f6 de | "D"f2fe dege |
| fefe d2f2 | "G"gfed "A"cABc | "D"d6 :: cB | "A"A2AB cABc | "D"dcde fdef |
| "G"g2gf g2a2 | "D"f6 cB | "A"A2AB cABc | "D"dcde f2ef | "G"gfed "A"cABc | "D"d6 :|
